wilib/img/svg/04.1.svg

<svg xmlns="http://www.w3.org/2000/svg" xmlns:xlink="http://www.w3.org/1999/xlink" preserveAspectRatio="none" width="202" height="212" viewBox="0 0 202 212"><defs><g id="a"><path fill="#CDD8DE" d="M49.6 40.1l12.75.05q3.95.1 5.55-3.65 1.55-3.75-1.3-6.6L38.45 1.75Q36.7 0 34.2 0t-4.25 1.75L1.8 29.9Q-1 32.7.5 36.5q1.55 3.75 5.55 3.65l12.75-.05V70q0 2.45 1.75 4.2t4.25 1.75h18.8q2.5 0 4.25-1.75T49.6 70V40.1m12.75-5.95L43.6 34.1V70H24.8V34.1L6 34.15 34.2 6l28.15 28.15z"/><path fill="#F93" d="M43.6 34.1l18.75.05L34.2 6 6 34.15l18.8-.05V70h18.8V34.1z"/></g><path id="b" stroke="#B66D24" stroke-linejoin="round" stroke-linecap="round" fill="none" d="M43.6 34.1V70H24.8V34.1L6 34.15 34.2 6l28.15 28.15-18.75-.05z"/></defs><g transform="rotate(-45 58.424 24.2)"><use xlink:href="#a"/><use xlink:href="#b"/></g><g transform="rotate(45 76.45 184.567)"><use xlink:href="#a"/><use xlink:href="#b"/></g><g transform="rotate(135 66.86 123.41)"><use xlink:href="#a"/><use xlink:href="#b"/></g><g transform="rotate(-135 68.115 95.855)"><use xlink:href="#a"/><use xlink:href="#b"/></g></svg>

<svg xmlns="http://www.w3.org/2000/svg" version="1.1" xmlns:xlink="http://www.w3.org/1999/xlink" preserveAspectRatio="none" x="0px" y="0px" width="202px" height="212px" viewBox="0 0 202 212">
<defs>
<g id="gr_01_0_Layer0_0_FILL">
<path fill="#CDD8DE" stroke="none" d="
M 49.6 40.1
L 62.35 40.15
Q 66.3 40.25 67.9 36.5 69.45 32.75 66.6 29.9
L 38.45 1.75
Q 36.7 0 34.2 0 31.7 0 29.95 1.75
L 1.8 29.9
Q -1 32.7 0.5 36.5 2.05 40.25 6.05 40.15
L 18.8 40.1 18.8 70
Q 18.8 72.45 20.55 74.2 22.3 75.95 24.8 75.95
L 43.6 75.95
Q 46.1 75.95 47.85 74.2 49.6 72.45 49.6 70
L 49.6 40.1
M 62.35 34.15
L 43.6 34.1 43.6 70 24.8 70 24.8 34.1 6 34.15 34.2 6 62.35 34.15 Z"/>

<path fill="#FF9933" stroke="none" d="
M 43.6 34.1
L 62.35 34.15 34.2 6 6 34.15 24.8 34.1 24.8 70 43.6 70 43.6 34.1 Z"/>
</g>

<path id="gr_01_0_Layer0_0_1_STROKES" stroke="#B66D24" stroke-width="1" stroke-linejoin="round" stroke-linecap="round" fill="none" d="
M 43.6 34.1
L 43.6 70 24.8 70 24.8 34.1 6 34.15 34.2 6 62.35 34.15 43.6 34.1 Z"/>
</defs>

<g id="seta_01" transform="matrix( 0.7071075439453125, -0.7071075439453125, 0.7071075439453125, 0.7071075439453125, 0,48.4) ">
<g transform="matrix( 1, 0, 0, 1, 0,0) ">
<g transform="matrix( 1, 0, 0, 1, 0,0) ">
<use xlink:href="#gr_01_0_Layer0_0_FILL"/>

<use xlink:href="#gr_01_0_Layer0_0_1_STROKES"/>
</g>
</g>
</g>

<g id="seta_01_FL" transform="matrix( 0.7071075439453125, 0.7071075439453125, -0.7071075439453125, 0.7071075439453125, 152.9,0) ">
<g transform="matrix( 1, 0, 0, 1, 0,0) ">
<g transform="matrix( 1, 0, 0, 1, 0,0) ">
<use xlink:href="#gr_01_0_Layer0_0_FILL"/>

<use xlink:href="#gr_01_0_Layer0_0_1_STROKES"/>
</g>
</g>
</g>

<g id="seta_01_FL_FL" transform="matrix( -0.7071075439453125, 0.7071075439453125, -0.7071075439453125, -0.7071075439453125, 201.4,163.4) ">
<g transform="matrix( 1, 0, 0, 1, 0,0) ">
<g transform="matrix( 1, 0, 0, 1, 0,0) ">
<use xlink:href="#gr_01_0_Layer0_0_FILL"/>

<use xlink:href="#gr_01_0_Layer0_0_1_STROKES"/>
</g>
</g>
</g>

<g id="seta_01_FL_FL_FL" transform="matrix( -0.7071075439453125, -0.7071075439453125, 0.7071075439453125, -0.7071075439453125, 48.5,211.8) ">
<g transform="matrix( 1, 0, 0, 1, 0,0) ">
<g transform="matrix( 1, 0, 0, 1, 0,0) ">
<use xlink:href="#gr_01_0_Layer0_0_FILL"/>

<use xlink:href="#gr_01_0_Layer0_0_1_STROKES"/>
</g>
</g>
</g>
</svg>
